static/img/kroki/a9382a3083924761da7fd2ce1cee85f4.svg

<?xml version="1.0" encoding="us-ascii" standalone="no"?><svg xmlns="http://www.w3.org/2000/svg" xmlns:xlink="http://www.w3.org/1999/xlink" contentStyleType="text/css" height="152px" preserveAspectRatio="none" style="width:306px;height:152px;" version="1.1" viewBox="0 0 306 152" width="306px" zoomAndPan="magnify"><defs/><g><!--class azure_mysql_server--><g id="elem_azure_mysql_server"><rect codeLine="23" fill="#3D176E" height="39.7891" id="azure_mysql_server" rx="2.5" ry="2.5" style="stroke:#000D19;stroke-width:0.5;" width="208" x="49" y="7"/><ellipse cx="64" cy="26.8945" fill="#ADD1B2" rx="11" ry="11" style="stroke:#181818;stroke-width:1.0;"/><path d="M66.9688,32.5352 Q66.3906,32.832 65.75,32.9727 Q65.1094,33.1289 64.4063,33.1289 Q61.9063,33.1289 60.5781,31.4883 Q59.2656,29.832 59.2656,26.707 Q59.2656,23.582 60.5781,21.9258 Q61.9063,20.2695 64.4063,20.2695 Q65.1094,20.2695 65.75,20.4258 Q66.4063,20.582 66.9688,20.8789 L66.9688,23.5977 Q66.3438,23.0195 65.75,22.7539 Q65.1563,22.4727 64.5313,22.4727 Q63.1875,22.4727 62.5,23.5508 Q61.8125,24.6133 61.8125,26.707 Q61.8125,28.8008 62.5,29.8789 Q63.1875,30.9414 64.5313,30.9414 Q65.1563,30.9414 65.75,30.6758 Q66.3438,30.3945 66.9688,29.8164 L66.9688,32.5352 Z " fill="#000000"/><text fill="#D9B8FF" font-family="Helvetica" font-size="17" lengthAdjust="spacing" textLength="166" x="83" y="32.7798">azure_mysql_server</text></g><!--class azure_mysql_server_database--><g id="elem_azure_mysql_server_database"><rect codeLine="26" fill="#3D176E" height="39.7891" id="azure_mysql_server_database" rx="2.5" ry="2.5" style="stroke:#000D19;stroke-width:0.5;" width="292" x="7" y="106.79"/><ellipse cx="22" cy="126.6845" fill="#ADD1B2" rx="11" ry="11" style="stroke:#181818;stroke-width:1.0;"/><path d="M24.9688,132.3252 Q24.3906,132.622 23.75,132.7627 Q23.1094,132.9189 22.4063,132.9189 Q19.9063,132.9189 18.5781,131.2783 Q17.2656,129.622 17.2656,126.497 Q17.2656,123.372 18.5781,121.7158 Q19.9063,120.0595 22.4063,120.0595 Q23.1094,120.0595 23.75,120.2158 Q24.4063,120.372 24.9688,120.6689 L24.9688,123.3877 Q24.3438,122.8095 23.75,122.5439 Q23.1563,122.2627 22.5313,122.2627 Q21.1875,122.2627 20.5,123.3408 Q19.8125,124.4033 19.8125,126.497 Q19.8125,128.5908 20.5,129.6689 Q21.1875,130.7314 22.5313,130.7314 Q23.1563,130.7314 23.75,130.4658 Q24.3438,130.1845 24.9688,129.6064 L24.9688,132.3252 Z " fill="#000000"/><text fill="#D9B8FF" font-family="Helvetica" font-size="17" lengthAdjust="spacing" textLength="250" x="41" y="132.5698">azure_mysql_server_database</text></g><!--link azure_mysql_server to azure_mysql_server_database--><g id="link_azure_mysql_server_azure_mysql_server_database"><path codeLine="29" d="M153,47.22 C153,64.36 153,83.27 153,100.41 " fill="none" id="azure_mysql_server-to-azure_mysql_server_database" style="stroke:#1A83AF;stroke-width:2.0;"/><polygon fill="#1A83AF" points="153,106.41,157,97.41,153,101.41,149,97.41,153,106.41" style="stroke:#1A83AF;stroke-width:2.0;"/></g><!--SRC=[XP31Ji9048RlVOfDUYQXDWfSJ6eJeXTYn9inPDgTfPjsTt5sWHJZkqkjcgMbS9t_cvblff0S6QgDgvb2bI7Pm9PIRu10iOJ8x5DJ6MAX423YIJUS6-sk0WjGo1wnsg6JENI9rqBcfKPhsOqNFK1UhibiDM_7Em9jZn5gvr5f1TOcpf7CjWuz6JxBfa9qoUxGCERHv0vxc26Ez8kCnsCUpRh8rLKNx_udblA0BFAVjZ0EUvgz5J_KHSk6y2HxX_xbWuxFmBdKQtRhrLvQ9z989_Lb0Tpi6rf0PVqrrY6XSVK6qzvLE9joCJaBFmt1GTwyZi5XIxXIjVseLXPfT_Jv38AlmNJ5mK465bliJFleBOoIQPpCtqVtbmO4tm00]--></g></svg>

<svg xmlns="http://www.w3.org/2000/svg" width="306" height="152" viewBox="0 0 306 152"><rect width="208" height="39.789" x="49" y="7" fill="#3D176E" rx="2.5" ry="2.5" style="stroke:#000d19;stroke-width:.5"/><circle cx="64" cy="26.895" r="11" fill="#ADD1B2" style="stroke:#181818;stroke-width:1"/><path d="M66.969 32.535q-.578.297-1.219.438-.64.156-1.344.156-2.5 0-3.828-1.64-1.312-1.657-1.312-4.782t1.312-4.781q1.328-1.656 3.828-1.656.703 0 1.344.156.656.156 1.219.453v2.719q-.625-.578-1.219-.844-.594-.281-1.219-.281-1.344 0-2.031 1.078-.687 1.062-.687 3.156t.687 3.172q.688 1.062 2.031 1.062.625 0 1.219-.265.594-.281 1.219-.86z"/><text x="83" y="32.78" fill="#D9B8FF" font-family="Helvetica" font-size="17" textLength="166">azure_mysql_server</text><rect width="292" height="39.789" x="7" y="106.79" fill="#3D176E" rx="2.5" ry="2.5" style="stroke:#000d19;stroke-width:.5"/><circle cx="22" cy="126.684" r="11" fill="#ADD1B2" style="stroke:#181818;stroke-width:1"/><path d="M24.969 132.325q-.578.297-1.219.438-.64.156-1.344.156-2.5 0-3.828-1.64-1.312-1.657-1.312-4.782t1.312-4.781q1.328-1.656 3.828-1.656.703 0 1.344.156.656.156 1.219.453v2.719q-.625-.579-1.219-.844-.594-.281-1.219-.281-1.343 0-2.031 1.078-.687 1.062-.687 3.156t.687 3.172q.688 1.062 2.031 1.062.625 0 1.219-.265.594-.281 1.219-.86z"/><text x="41" y="132.57" fill="#D9B8FF" font-family="Helvetica" font-size="17" textLength="250">azure_mysql_server_database</text><path fill="none" d="M153 47.22v53.19" style="stroke:#1a83af;stroke-width:2"/><path fill="#1A83AF" d="m153 106.41 4-9-4 4-4-4z" style="stroke:#1a83af;stroke-width:2"/></svg>
